packages/foundations/assets/icons/functional/images/security/key_24.svg

<svg width="24" height="24" viewBox="0 0 24 24" fill="none" xmlns="http://www.w3.org/2000/svg">
<g clip-path="url(#clip0_187_267)">
<path fill-rule="evenodd" clip-rule="evenodd" d="M17.9741 2.0005L21.0801 2.0085C21.5981 2.0735 21.9991 2.5155 21.9991 3.0515L21.9901 6.1645C21.9601 6.3915 21.8561 6.6045 21.6921 6.7695L20.8551 7.5955C20.7261 7.6975 20.5741 7.7675 20.4111 7.8005L19.2401 8.0335L18.9721 9.3375C18.8521 9.6885 18.5541 9.9535 18.1841 10.0275L17.0101 10.2625L16.7431 11.5565C16.6921 11.7135 16.6051 11.8565 16.4871 11.9735L14.4041 14.0595C14.9791 16.2115 14.3841 18.5375 12.7701 20.1515C10.3061 22.6155 6.3121 22.6155 3.8481 20.1515C1.3851 17.6875 1.3851 13.6935 3.8481 11.2305C5.4641 9.6145 7.7921 9.0205 9.9421 9.5965L17.3351 2.2175C17.5171 2.0775 17.7421 2.0005 17.9741 2.0005ZM18.3781 4.0015L10.5391 11.8265L9.4251 11.5285C9.0611 11.4315 8.6861 11.3815 8.3101 11.3815C7.1591 11.3815 6.0771 11.8295 5.2631 12.6445C4.4491 13.4585 4.0011 14.5405 4.0011 15.6915C4.0011 16.8415 4.4491 17.9235 5.2631 18.7375C6.0761 19.5505 7.1591 19.9985 8.3091 19.9985C9.4601 19.9985 10.5421 19.5505 11.3561 18.7375C12.4401 17.6525 12.8681 16.0575 12.4721 14.5755L12.1741 13.4615L14.8641 10.7685L15.3191 8.5605L17.1661 8.1925L17.5501 6.3315L19.7281 5.8975L19.9921 5.6375L19.9961 4.0055L18.3781 4.0015ZM9.4244 14.5756C10.0404 15.1916 10.0404 16.1896 9.4244 16.8056C8.8084 17.4216 7.8104 17.4216 7.1944 16.8056C6.5784 16.1896 6.5784 15.1916 7.1944 14.5756C7.8104 13.9596 8.8084 13.9596 9.4244 14.5756Z" fill="#1A1C1F"/>
</g>
<defs>
<clipPath id="clip0_187_267">
<rect width="24" height="24" fill="white"/>
</clipPath>
</defs>
</svg>

<svg xmlns="http://www.w3.org/2000/svg" width="24" height="24" fill="none"><g clip-path="url(#a)"><path fill="#1A1C1F" fill-rule="evenodd" d="m17.974 2 3.106.009c.518.065.92.506.92 1.043l-.01 3.113c-.03.226-.134.44-.298.604l-.837.827a1.05 1.05 0 0 1-.444.205l-1.17.232-.269 1.305a1.05 1.05 0 0 1-.788.69l-1.174.234-.267 1.294c-.05.158-.138.3-.256.418l-2.083 2.085a6.308 6.308 0 1 1-4.462-4.463l7.393-7.379a1.05 1.05 0 0 1 .64-.216m.404 2.002-7.839 7.825-1.114-.299a4.3 4.3 0 0 0-1.115-.146 4.28 4.28 0 0 0-3.047 1.263 4.28 4.28 0 0 0-1.262 3.047 4.28 4.28 0 0 0 1.262 3.046 4.28 4.28 0 0 0 3.046 1.26 4.28 4.28 0 0 0 3.047-1.26 4.33 4.33 0 0 0 1.116-4.162l-.298-1.115 2.69-2.693.455-2.208 1.847-.367.384-1.861 2.178-.434.264-.26.004-1.633zM9.424 14.576a1.576 1.576 0 1 1-2.229 2.23 1.576 1.576 0 0 1 2.23-2.23" clip-rule="evenodd"/></g><defs><clipPath id="a"><path fill="#fff" d="M0 0h24v24H0z"/></clipPath></defs></svg>
